X:1
T:Title
%%score 1 2
L:1/8
Q:1/4=85
M:6/8
K:C
V:1 treble nm="Grand Piano, Soprano"
V:2 bass nm="Choir Pad, University City, 10.11.10.11 D"
V:1
 [FA]>[F^G][FA] F2 F | [EG][DF][EG] [FA]2 [Fc] | [Fc]>[FB][Fc] [Fd][Fc][FA] | %3
w: By~Charles~Edward~Pollock,~1092 * * * *|||
 [FA][FG][FG] [EG]2 [G_B] | [FA]>[F^G][FA] F2 F | [EG][DF][EG] [FA]2 [Fc] | %6
w: |||
 [Fc]>[FB][Fc] [Fd][Fc][FA] | [CG][CF][CG] [CF]3 | [Fc]>[FB][Fc] [Fd][Fc][FA] | %9
w: |||
 [EG][FA][G_B] [FA]3 | [Fc]>[FB][Fc] [Fd][Fc][FA] | [EG][FA][FB] [Ec]2 [G_B] | %12
w: |||
 [FA]>[F^G][FA] F2 F | [EG][DF][EG] [FA]2 [Fc] | [Fc]>[FB][Fc] [Fd][Fc][FA] | %15
w: |||
 [CG]>[CF][CG] [CF]3- | [CF]6 |] %17
w: ||
V:2
 [F,C]>[F,B,][F,C] [F,A,]2 [F,A,] | [C,C][C,C][C,C] [F,C]2 [F,A,] | %2
 [F,A,]>[F,^G,][F,A,] [F,_B,][F,A,][F,C] | [G,B,][G,B,][G,B,] [C,C]2 [C,C] | %4
 [F,C]>[F,B,][F,C] [F,A,]2 [F,A,] | [C,C][C,C][C,C] [F,C]2 [F,A,] | %6
 [F,A,]>[F,^G,][F,A,] [F,_B,][F,A,][F,C] | [C,_B,][C,A,][C,B,] [F,A,]3 | %8
 [F,A,]>[F,^G,][F,A,] [F,_B,][F,A,][F,C] | [C,C][C,C][C,C] [F,C]3 | %10
 [F,A,]>[F,^G,][F,A,] [F,_B,][F,A,][F,C] | [G,C][G,B,][G,D] [C,C]2 [C,C] | %12
 [F,C]>[F,B,][F,C] [F,A,]2 [F,A,] | [C,C][C,C][C,C] [F,C]2 [F,A,] | %14
 [F,A,]>[F,^G,][F,A,] [F,_B,][F,A,][F,C] | [C,_B,]>[C,A,][C,B,] [F,A,]3- | [F,A,]6 |] %17

